actions/22/edit-delete.svg

<?xml version="1.0" encoding="UTF-8" standalone="no"?>
<!-- Created with Inkscape (http://www.inkscape.org/) -->

<svg
   xmlns:svg="http://www.w3.org/2000/svg"
   xmlns="http://www.w3.org/2000/svg"
   xmlns:xlink="http://www.w3.org/1999/xlink"
   version="1.0"
   width="22"
   height="22"
   id="svg2">
  <defs
     id="defs4">
    <linearGradient
       id="linearGradient2490">
      <stop
         id="stop2492"
         style="stop-color:#791235;stop-opacity:1"
         offset="0" />
      <stop
         id="stop2494"
         style="stop-color:#dd3b27;stop-opacity:1"
         offset="1" />
    </linearGradient>
    <linearGradient
       id="linearGradient3242">
      <stop
         id="stop3244"
         style="stop-color:#f8b17e;stop-opacity:1"
         offset="0" />
      <stop
         id="stop3246"
         style="stop-color:#e35d4f;stop-opacity:1"
         offset="0.26238" />
      <stop
         id="stop3248"
         style="stop-color:#c6262e;stop-opacity:1"
         offset="0.66093999" />
      <stop
         id="stop3250"
         style="stop-color:#690b54;stop-opacity:1"
         offset="1" />
    </linearGradient>
    <linearGradient
       id="linearGradient4873">
      <stop
         id="stop4875"
         style="stop-color:white;stop-opacity:1"
         offset="0" />
      <stop
         id="stop4877"
         style="stop-color:white;stop-opacity:0"
         offset="1" />
    </linearGradient>
    <linearGradient
       id="linearGradient3781">
      <stop
         id="stop3783"
         style="stop-color:white;stop-opacity:1"
         offset="0" />
      <stop
         id="stop3785"
         style="stop-color:white;stop-opacity:0"
         offset="1" />
    </linearGradient>
    <radialGradient
       cx="23.895569"
       cy="3.9900031"
       r="20.397499"
       fx="23.895569"
       fy="3.9900031"
       id="radialGradient2426"
       xlink:href="#linearGradient3242"
       gradientUnits="userSpaceOnUse"
       gradientTransform="matrix(0,1.2316137,-1.6257082,0,18.486581,-28.720783)" />
    <linearGradient
       x1="18.379412"
       y1="44.980297"
       x2="18.379412"
       y2="3.0816143"
       id="linearGradient2428"
       xlink:href="#linearGradient2490"
       gradientUnits="userSpaceOnUse"
       gradientTransform="matrix(0.5160413,0,0,0.5160413,-0.384991,-0.3849911)" />
    <linearGradient
       x1="63.397362"
       y1="-12.489107"
       x2="63.397362"
       y2="5.4675598"
       id="linearGradient2430"
       xlink:href="#linearGradient4873"
       gradientUnits="userSpaceOnUse"
       gradientTransform="matrix(1.0862728,0,0,1.0862481,-55.56661,15.813638)" />
    <linearGradient
       x1="24.481066"
       y1="5.0808945"
       x2="24.481066"
       y2="45.074459"
       id="linearGradient2432"
       xlink:href="#linearGradient3781"
       gradientUnits="userSpaceOnUse"
       gradientTransform="matrix(0.5384199,0,0,0.5384199,-0.922077,-1.4604985)" />
  </defs>
  <g
     transform="translate(-1,-1)"
     id="g2421">
    <path
       d="m 12.000002,1.501785 c -5.792553,0 -10.498217,4.7056616 -10.498217,10.498214 0,5.792554 4.705664,10.498219 10.498217,10.498216 5.79255,0 10.498219,-4.705662 10.498213,-10.498216 0,-5.7925524 -4.705663,-10.498214 -10.498213,-10.498214 z m 0,3.3703947 c 3.938154,0 7.127819,3.1896662 7.127819,7.1278193 0,1.652812 -0.572672,3.161557 -1.515873,4.370226 L 8.581229,5.7429991 C 9.595855,5.1878371 10.761308,4.8721797 12.000002,4.8721797 z M 6.291294,7.7426589 15.289765,18.321506 c -0.984185,0.512744 -2.102715,0.806315 -3.289763,0.806315 -3.938154,-1e-6 -7.127821,-3.189667 -7.127821,-7.127822 0,-1.599874 0.529949,-3.0681981 1.419113,-4.2573401 z"
       id="path2555"
       style="fill:url(#radialGradient2426);fill-opacity:1;stroke:url(#linearGradient2428);stroke-width:1.00365424;stroke-linecap:round;stroke-linejoin:round;stroke-miterlimit:4;stroke-opacity:1;stroke-dasharray:none;stroke-dashoffset:0" />
    <path
       d="m 21.499999,11.999663 c 0,5.246874 -4.253609,9.500336 -9.499879,9.500336 -5.2467526,0 -9.5001201,-4.253509 -9.5001201,-9.500336 0,-5.2466312 4.2533675,-9.4996623 9.5001201,-9.4996623 5.24627,0 9.499879,4.2530311 9.499879,9.4996623 l 0,0 z"
       id="path2463"
       style="opacity:0.4;fill:none;stroke:url(#linearGradient2430);stroke-width:0.99999994;stroke-miterlimit:4;stroke-opacity:1;stroke-dasharray:none" />
    <path
       d="M 7.8041767,6.4112447 16.919199,17.041577"
       id="path3270"
       style="opacity:0.4;fill:none;stroke:url(#linearGradient2432);stroke-width:1px;stroke-linecap:round;stroke-linejoin:miter;stroke-opacity:1" />
  </g>
</svg>

<?xml version="1.0" encoding="UTF-8" standalone="no"?>
<!-- Created with Inkscape (http://www.inkscape.org/) -->
<svg
   xmlns:svg="http://www.w3.org/2000/svg"
   xmlns="http://www.w3.org/2000/svg"
   xmlns:xlink="http://www.w3.org/1999/xlink"
   version="1.0"
   width="22"
   height="22"
   id="svg2">
  <defs
     id="defs4">
    <linearGradient
       id="linearGradient2490">
      <stop
         id="stop2492"
         style="stop-color:#791235;stop-opacity:1"
         offset="0" />
      <stop
         id="stop2494"
         style="stop-color:#dd3b27;stop-opacity:1"
         offset="1" />
    </linearGradient>
    <linearGradient
       id="linearGradient3242">
      <stop
         id="stop3244"
         style="stop-color:#f8b17e;stop-opacity:1"
         offset="0" />
      <stop
         id="stop3246"
         style="stop-color:#e35d4f;stop-opacity:1"
         offset="0.26238" />
      <stop
         id="stop3248"
         style="stop-color:#c6262e;stop-opacity:1"
         offset="0.66093999" />
      <stop
         id="stop3250"
         style="stop-color:#690b54;stop-opacity:1"
         offset="1" />
    </linearGradient>
    <linearGradient
       id="linearGradient4873">
      <stop
         id="stop4875"
         style="stop-color:#ffffff;stop-opacity:1"
         offset="0" />
      <stop
         id="stop4877"
         style="stop-color:#ffffff;stop-opacity:0"
         offset="1" />
    </linearGradient>
    <linearGradient
       id="linearGradient3781">
      <stop
         id="stop3783"
         style="stop-color:#ffffff;stop-opacity:1"
         offset="0" />
      <stop
         id="stop3785"
         style="stop-color:#ffffff;stop-opacity:0"
         offset="1" />
    </linearGradient>
    <radialGradient
       cx="23.895569"
       cy="3.9900031"
       r="20.397499"
       fx="23.895569"
       fy="3.9900031"
       id="radialGradient2426"
       xlink:href="#linearGradient3242"
       gradientUnits="userSpaceOnUse"
       gradientTransform="matrix(0,1.2316137,-1.6257082,0,18.486581,-28.720783)" />
    <linearGradient
       x1="18.379412"
       y1="44.980297"
       x2="18.379412"
       y2="3.0816143"
       id="linearGradient2428"
       xlink:href="#linearGradient2490"
       gradientUnits="userSpaceOnUse"
       gradientTransform="matrix(0.5160413,0,0,0.5160413,-0.384991,-0.3849911)" />
    <linearGradient
       x1="63.397362"
       y1="-12.489107"
       x2="63.397362"
       y2="5.4675598"
       id="linearGradient2430"
       xlink:href="#linearGradient4873"
       gradientUnits="userSpaceOnUse"
       gradientTransform="matrix(1.0862728,0,0,1.0862481,-55.56661,15.813638)" />
    <linearGradient
       x1="24.481066"
       y1="5.0808945"
       x2="24.481066"
       y2="45.074459"
       id="linearGradient2432"
       xlink:href="#linearGradient3781"
       gradientUnits="userSpaceOnUse"
       gradientTransform="matrix(0.5384199,0,0,0.5384199,-0.922077,-1.4604985)" />
  </defs>
  <g
     transform="translate(-1,-1)"
     id="g2421">
    <path
       d="M 12.000002,1.501785 C 6.207449,1.501785 1.501785,6.2074466 1.501785,11.999999 C 1.501785,17.792553 6.207449,22.498218 12.000002,22.498215 C 17.792552,22.498215 22.498221,17.792553 22.498215,11.999999 C 22.498215,6.2074466 17.792552,1.501785 12.000002,1.501785 z M 12.000002,4.8721797 C 15.938156,4.8721797 19.127821,8.0618459 19.127821,11.999999 C 19.127821,13.652811 18.555149,15.161556 17.611948,16.370225 L 8.581229,5.7429991 C 9.595855,5.1878371 10.761308,4.8721797 12.000002,4.8721797 z M 6.291294,7.7426589 L 15.289765,18.321506 C 14.30558,18.83425 13.18705,19.127821 12.000002,19.127821 C 8.061848,19.12782 4.872181,15.938154 4.872181,11.999999 C 4.872181,10.400125 5.40213,8.9318009 6.291294,7.7426589 z"
       id="path2555"
       style="fill:url(#radialGradient2426);fill-opacity:1;stroke:url(#linearGradient2428);stroke-width:1.00365424;stroke-linecap:round;stroke-linejoin:round;stroke-miterlimit:4;stroke-dasharray:none;stroke-dashoffset:0;stroke-opacity:1" />
    <path
       d="M 21.499999,11.999663 C 21.499999,17.246537 17.24639,21.499999 12.00012,21.499999 C 6.7533674,21.499999 2.4999999,17.24649 2.4999999,11.999663 C 2.4999999,6.7530318 6.7533674,2.5000007 12.00012,2.5000007 C 17.24639,2.5000007 21.499999,6.7530318 21.499999,11.999663 L 21.499999,11.999663 z"
       id="path2463"
       style="opacity:0.4;fill:none;fill-opacity:1;fill-rule:nonzero;stroke:url(#linearGradient2430);stroke-width:0.99999994;stroke-miterlimit:4;stroke-dasharray:none;stroke-opacity:1" />
    <path
       d="M 7.8041767,6.4112447 L 16.919199,17.041577"
       id="path3270"
       style="opacity:0.4;fill:none;fill-rule:evenodd;stroke:url(#linearGradient2432);stroke-width:1px;stroke-linecap:round;stroke-linejoin:miter;stroke-opacity:1" />
  </g>
</svg>
